X:1
T:Le Loup, la biche et le chevaIier
C:"Une chanson douce"  M. Pon - H. SaIvador, fichier abc : Bernard Loffet
L:1/8
Q:224
K:C
M:2/2
|: [cC,,]c[cC,]c [e2A,,2][c2A,2] | [dD,,]d[dD,]d [f2G,,2][eG,]g | C,,2C,2 C,,2C,2 | \
 G,,2G,2 G,,2G,2 | [cC,,]c[cC,]c [e2A,,2][c2A,2] | [dD,,]d[dD,]d [f2G,,2][BG,]c | \
 C,,2C,2 C,,2C,2 | C,,2C,2 C,,2C,2 :|: [AF,,]B[AF,]B [AF,,]B[AF,]B | [cF,,]d[cF,]d [cF,,]d[cF,]d | \
 [e2C,,2]C,2 [gC,,]^f[=f2G,2] | [e2E,,2]E,2 E,,2E,2 :| \
W:Created with TablEdit http://www.tabledit.com/ by Bernard Loffet
